Costumes/bowl-a.svg

<?xml version="1.0" encoding="UTF-8" standalone="no"?>
<svg
   version="1.1"
   width="59.650059"
   height="36.853836"
   viewBox="-1 -1 59.650059 36.853836"
   id="svg12"
   sodipodi:docname="bowl-a.svg"
   xmlns:inkscape="http://www.inkscape.org/namespaces/inkscape"
   xmlns:sodipodi="http://sodipodi.sourceforge.net/DTD/sodipodi-0.dtd"
   xmlns="http://www.w3.org/2000/svg"
   xmlns:svg="http://www.w3.org/2000/svg">
  <defs
     id="defs16" />
  <sodipodi:namedview
     id="namedview14"
     pagecolor="#ffffff"
     bordercolor="#000000"
     borderopacity="0.25"
     inkscape:showpageshadow="2"
     inkscape:pageopacity="0.0"
     inkscape:pagecheckerboard="0"
     inkscape:deskcolor="#d1d1d1" />
  <!-- Exported by Scratch - http://scratch.mit.edu/ -->
  <g
     id="Bowl"
     transform="translate(-1.1496118,-1.8297991)">
    <g
       id="OutsideBowl_1_">
      <path
         id="ID0.22138935374096036"
         fill="#65cbeb"
         d="m 46.8,69.291 c -0.661,0 -1.032,-0.016 -1.05,-0.017 C 0.619,64.974 1.458,36.392 1.516,35.177 1.709,31.129 3.693,26.995 5.155,24.462 c 2.173,2.997 6.306,5.324 12.309,6.926 5.424,1.448 13.622,3.637 27.676,3.761 l 0.916,0.004 c 0.401,0 37.374,-0.136 43.842,-11.154 2.099,3.411 3.023,10.277 3.116,14.622 -6.597,29.188 -39.641,30.67 -46.214,30.67 0.001,0 0,0 0,0 z"
         transform="matrix(0.63024944,0,0,0.63024944,0.15,-6.95)" />
      <path
         id="ID0.7706678751856089"
         d="M 89.596,26.812 C 90.778,30.07 91.414,34.95 91.51,38.47 85.066,66.373 53.155,67.79 46.8,67.79 46.328,67.79 46.013,67.782 45.883,67.777 28.783,66.135 16.473,60.881 9.293,52.157 2.92,44.415 2.945,36.713 3.015,35.248 c 0.138,-2.897 1.286,-5.875 2.438,-8.181 2.551,2.453 6.444,4.387 11.625,5.771 5.498,1.468 13.806,3.686 28.05,3.812 0.303,0.002 0.612,0.004 0.929,0.004 3.92,0 34.161,-0.316 43.539,-9.842 M 5.64,21.105 c 0,0 0,0.001 0,0 H 5.517 c 0,0 -5.167,7 -5.5,14 -0.333,7 3.667,31.667 45.667,35.667 0,0 0.396,0.018 1.116,0.018 6.644,0 40.951,-1.492 47.717,-32.018 0,0 -0.227,-14.22 -5.196,-17.61 -1.171,9.68 -29.081,12.491 -43.265,12.491 -0.308,0 -0.608,-10e-4 -0.903,-0.004 C 31.289,33.526 23.174,31.36 17.851,29.939 12.528,28.518 7.851,26.272 5.876,22.817 5.534,22.221 5.489,21.647 5.64,21.105 v 0 l 83.956,5.707 z"
         transform="matrix(0.63024944,0,0,0.63024944,0.15,-6.95)" />
    </g>
    <g
       id="InsideBowl">
      <path
         id="ID0.219700216781348"
         fill="#660000"
         d="M 45.007,35.149 C 30.98,35.018 22.797,32.698 17.382,31.163 11.519,29.501 7.585,27.071 6.004,24.135 5.856,23.86 5.822,23.629 5.893,23.362 6.235,22.055 8.76,20.504 10.962,19.614 l 0.25,-0.098 c 10.607,-3.755 22.549,-5.671 35.43,-5.671 19.284,0 34.861,4.307 38.059,5.791 3.159,1.467 3.93,3.024 4.095,3.484 -1.412,8.298 -25.807,12.034 -42.874,12.034 z"
         transform="matrix(0.63024944,0,0,0.63024944,0.15,-6.95)" />
      <path
         id="ID0.2999734110198915"
         d="m 46.642,15.344 c 19.204,0 34.742,4.406 37.427,5.652 2.009,0.933 2.827,1.838 3.139,2.302 -0.951,2.868 -6.36,5.666 -14.746,7.58 -8.962,2.046 -19.586,2.775 -26.541,2.775 -0.307,0 -0.607,-10e-4 -0.9,-0.004 C 31.195,33.52 23.129,31.233 17.792,29.72 12.458,28.208 8.881,26.096 7.424,23.6 7.818,23.017 9.296,21.912 11.479,21.023 l 0.057,-0.021 0.049,-0.021 0.026,-0.011 0.171,-0.063 c 10.476,-3.691 22.203,-5.563 34.86,-5.563 m 0,-3 c -11.257,0 -23.795,1.46 -35.999,5.783 0,0 -0.021,0.008 -0.05,0.02 -0.005,0.002 -0.01,0.003 -0.016,0.006 -0.039,0.014 -0.092,0.036 -0.163,0.064 -0.004,0.002 -0.01,0.004 -0.015,0.006 -1.062,0.429 -5.311,2.284 -5.958,4.757 -0.155,0.591 -0.109,1.216 0.241,1.866 2.027,3.765 6.827,6.211 12.29,7.76 5.463,1.549 13.791,3.91 28.02,4.043 0.302,0.003 0.612,0.004 0.928,0.004 14.557,0 43.198,-3.063 44.4,-13.611 0,0 -0.26,-2.572 -4.988,-4.768 -3.017,-1.399 -18.865,-5.93 -38.69,-5.93 v 0 3 z"
         transform="matrix(0.63024944,0,0,0.63024944,0.15,-6.95)" />
    </g>
  </g>
  <g
     id="Bowl_Front"
     transform="translate(-1.1496118,-1.8297991)">
    <path
       id="ID0.31010090559720993"
       fill="#cc7700"
       d="m 47.886,69.821 c -1.348,0 -2.127,-0.045 -2.144,-0.046 C 0.102,65.427 0.958,36.388 1.017,35.153 c 0.216,-4.539 2.617,-9.161 4.114,-11.63 1.951,3.212 6.142,5.695 12.462,7.382 5.4,1.442 13.561,3.621 27.551,3.744 l 0.912,0.004 c 0.408,0 39.029,-0.141 43.819,-11.704 3.58,3.791 4.042,11.989 3.648,15.718 -3.058,28.905 -35.701,31.154 -45.637,31.154 10e-4,0 10e-4,0 0,0 z"
       transform="matrix(0.63024944,0,0,0.63024944,0.15,-6.95)" />
    <path
       id="ID0.6804001186974347"
       d="m 90.014,24.759 c 2.32,3.586 2.93,9.871 2.514,13.804 -2.97,28.075 -34.92,30.257 -44.642,30.257 -1.163,0 -1.897,-0.034 -2.053,-0.042 C 28.436,67.115 15.882,61.737 8.52,52.793 1.914,44.768 1.942,36.731 2.015,35.201 2.188,31.576 3.841,27.867 5.222,25.36 c 2.339,2.801 6.402,4.987 12.113,6.512 5.449,1.455 13.683,3.653 27.8,3.778 0.3,0.002 0.606,0.004 0.92,0.004 1.624,0 36.612,-0.135 43.959,-10.895 M 5.64,21.105 c 0,0 0,0.001 0,0 H 5.517 c 0,0 -5.167,7 -5.5,14 -0.333,7 3.667,31.667 45.667,35.667 0,0 0.803,0.047 2.202,0.047 9.102,0 43.453,-2.002 46.631,-32.047 0.482,-4.565 -0.227,-14.22 -5.196,-17.61 -1.171,9.68 -29.081,12.491 -43.265,12.491 -0.308,0 -0.608,-10e-4 -0.903,-0.004 C 31.289,33.526 23.174,31.36 17.851,29.939 12.528,28.518 7.851,26.272 5.876,22.817 5.534,22.221 5.489,21.647 5.64,21.105 v 0 l 84.374,3.654 z"
       transform="matrix(0.63024944,0,0,0.63024944,0.15,-6.95)" />
  </g>
</svg>

<svg version="1.1" width="61" height="38" viewBox="-1 -1 61 38" xmlns="http://www.w3.org/2000/svg" xmlns:xlink="http://www.w3.org/1999/xlink">
  <!-- Exported by Scratch - http://scratch.mit.edu/ -->
  <g id="Bowl">
    <g id="OutsideBowl_1_">
      <path id="ID0.22138935374096036" fill="#65CBEB" d="M 46.800 69.291 C 46.139 69.291 45.768 69.275 45.750 69.274 C 0.619 64.974 1.458 36.392 1.516 35.177 C 1.709 31.129 3.693 26.995 5.155 24.462 C 7.328 27.459 11.461 29.786 17.464 31.388 C 22.888 32.836 31.086 35.025 45.140 35.149 L 46.056 35.153 C 46.457 35.153 83.430 35.017 89.898 23.999 C 91.997 27.410 92.921 34.276 93.014 38.621 C 86.417 67.809 53.373 69.291 46.800 69.291 C 46.801 69.291 46.800 69.291 46.800 69.291 L 46.800 69.291 Z " transform="matrix(0.6302494406700134, 0, 0, 0.6302494406700134, 0.15, -6.95)"/>
      <path id="ID0.7706678751856089" d="M 89.596 26.812 C 90.778 30.070 91.414 34.950 91.510 38.470 C 85.066 66.373 53.155 67.790 46.800 67.790 C 46.328 67.790 46.013 67.782 45.883 67.777 C 28.783 66.135 16.473 60.881 9.293 52.157 C 2.920 44.415 2.945 36.713 3.015 35.248 C 3.153 32.351 4.301 29.373 5.453 27.067 C 8.004 29.520 11.897 31.454 17.078 32.838 C 22.576 34.306 30.884 36.524 45.128 36.650 C 45.431 36.652 45.740 36.654 46.057 36.654 C 49.977 36.654 80.218 36.338 89.596 26.812 M 5.640 21.105 C 5.640 21.105 5.640 21.106 5.640 21.105 L 5.517 21.105 C 5.517 21.105 0.350 28.105 0.017 35.105 C -0.316 42.105 3.684 66.772 45.684 70.772 C 45.684 70.772 46.080 70.790 46.800 70.790 C 53.444 70.790 87.751 69.298 94.517 38.772 C 94.517 38.772 94.290 24.552 89.321 21.162 C 88.150 30.842 60.240 33.653 46.056 33.653 C 45.748 33.653 45.448 33.652 45.153 33.649 C 31.289 33.526 23.174 31.360 17.851 29.939 C 12.528 28.518 7.851 26.272 5.876 22.817 C 5.534 22.221 5.489 21.647 5.640 21.105 L 5.640 21.105 L 89.596 26.812 Z " transform="matrix(0.6302494406700134, 0, 0, 0.6302494406700134, 0.15, -6.95)"/>
    </g>
    <g id="InsideBowl">
      <path id="ID0.219700216781348" fill="#660000" d="M 45.007 35.149 C 30.980 35.018 22.797 32.698 17.382 31.163 C 11.519 29.501 7.585 27.071 6.004 24.135 C 5.856 23.860 5.822 23.629 5.893 23.362 C 6.235 22.055 8.760 20.504 10.962 19.614 L 11.212 19.516 C 21.819 15.761 33.761 13.845 46.642 13.845 C 65.926 13.845 81.503 18.152 84.701 19.636 C 87.860 21.103 88.631 22.660 88.796 23.120 C 87.384 31.418 62.989 35.154 45.922 35.154 L 45.007 35.149 L 45.007 35.149 Z " transform="matrix(0.6302494406700134, 0, 0, 0.6302494406700134, 0.15, -6.95)"/>
      <path id="ID0.2999734110198915" d="M 46.642 15.344 C 65.846 15.344 81.384 19.750 84.069 20.996 C 86.078 21.929 86.896 22.834 87.208 23.298 C 86.257 26.166 80.848 28.964 72.462 30.878 C 63.500 32.924 52.876 33.653 45.921 33.653 C 45.614 33.653 45.314 33.652 45.021 33.649 C 31.195 33.520 23.129 31.233 17.792 29.720 C 12.458 28.208 8.881 26.096 7.424 23.600 C 7.818 23.017 9.296 21.912 11.479 21.023 L 11.536 21.002 L 11.585 20.981 L 11.611 20.970 L 11.782 20.907 C 22.258 17.216 33.985 15.344 46.642 15.344 M 46.642 12.344 C 35.385 12.344 22.847 13.804 10.643 18.127 C 10.643 18.127 10.622 18.135 10.593 18.147 C 10.588 18.149 10.583 18.150 10.577 18.153 C 10.538 18.167 10.485 18.189 10.414 18.217 C 10.410 18.219 10.404 18.221 10.399 18.223 C 9.337 18.652 5.088 20.507 4.441 22.980 C 4.286 23.571 4.332 24.196 4.682 24.846 C 6.709 28.611 11.509 31.057 16.972 32.606 C 22.435 34.155 30.763 36.516 44.992 36.649 C 45.294 36.652 45.604 36.653 45.920 36.653 C 60.477 36.653 89.118 33.590 90.320 23.042 C 90.320 23.042 90.060 20.470 85.332 18.274 C 82.315 16.875 66.467 12.344 46.642 12.344 L 46.642 12.344 L 46.642 15.344 Z " transform="matrix(0.6302494406700134, 0, 0, 0.6302494406700134, 0.15, -6.95)"/>
    </g>
  </g>
  <g id="Bowl_Front">
    <path id="ID0.31010090559720993" fill="#CC7700" d="M 47.886 69.821 C 46.538 69.821 45.759 69.776 45.742 69.775 C 0.102 65.427 0.958 36.388 1.017 35.153 C 1.233 30.614 3.634 25.992 5.131 23.523 C 7.082 26.735 11.273 29.218 17.593 30.905 C 22.993 32.347 31.154 34.526 45.144 34.649 L 46.056 34.653 C 46.464 34.653 85.085 34.512 89.875 22.949 C 93.455 26.740 93.917 34.938 93.523 38.667 C 90.465 67.572 57.822 69.821 47.886 69.821 C 47.887 69.821 47.887 69.821 47.886 69.821 L 47.886 69.821 Z " transform="matrix(0.6302494406700134, 0, 0, 0.6302494406700134, 0.15, -6.95)"/>
    <path id="ID0.6804001186974347" d="M 90.014 24.759 C 92.334 28.345 92.944 34.630 92.528 38.563 C 89.558 66.638 57.608 68.820 47.886 68.820 C 46.723 68.820 45.989 68.786 45.833 68.778 C 28.436 67.115 15.882 61.737 8.520 52.793 C 1.914 44.768 1.942 36.731 2.015 35.201 C 2.188 31.576 3.841 27.867 5.222 25.360 C 7.561 28.161 11.624 30.347 17.335 31.872 C 22.784 33.327 31.018 35.525 45.135 35.650 C 45.435 35.652 45.741 35.654 46.055 35.654 C 47.679 35.654 82.667 35.519 90.014 24.759 M 5.640 21.105 C 5.640 21.105 5.640 21.106 5.640 21.105 L 5.517 21.105 C 5.517 21.105 0.350 28.105 0.017 35.105 C -0.316 42.105 3.684 66.772 45.684 70.772 C 45.684 70.772 46.487 70.819 47.886 70.819 C 56.988 70.819 91.339 68.817 94.517 38.772 C 94.999 34.207 94.290 24.552 89.321 21.162 C 88.150 30.842 60.240 33.653 46.056 33.653 C 45.748 33.653 45.448 33.652 45.153 33.649 C 31.289 33.526 23.174 31.360 17.851 29.939 C 12.528 28.518 7.851 26.272 5.876 22.817 C 5.534 22.221 5.489 21.647 5.640 21.105 L 5.640 21.105 L 90.014 24.759 Z " transform="matrix(0.6302494406700134, 0, 0, 0.6302494406700134, 0.15, -6.95)"/>
  </g>
</svg>
